X: 17417
T: Highland Boat Song
R: waltz
M: 3/4
K: Aminor
A3 E A2|c3 B c2|e3 c e2|a4 g2|e3 d c2|B3 c d2|e3 d c2|B3 A G2|
A3 E A2|c3 B c2|e3 c e2|a4 g2|e3 d c2|B3 A G2|A3 B A2|1 A4 E2:|2 A6||
|:g3 a g2|e3 d e2|g3 a g2|e3 d e2|a3 b a>g|e4 a2|a3 b a>g|d6|
A3 E A2|c3 B c2|e3 c e2|a4 a>g|e4 f>d|B3 G c>B|A6|A6:|

